public/logo.svg

<svg _ngcontent-ng-c1742942910="" viewBox="0 0 24 24" fill="#366CDF" xmlns="http://www.w3.org/2000/svg" width="36" height="36"><path _ngcontent-ng-c1742942910="" fillRule="evenodd" clipRule="evenodd" d="M4.86 5.035c1.176-.675 2.996-.385 3.447 1.362.032.174-.02.269-.311.186-.927-.43-1.724-.313-2.494.127C3.854 7.65 2.207 8.595.564 9.546c-.146.085-.346.204-.376.34-.14.627-.276 1.264-.115 1.946l.216-.107c.135-.067.255-.126.373-.189 2.01-1.07 4.02-2.142 6.03-3.215.763-.407 1.538-.48 2.328-.086.609.302.921.84 1.137 1.45.067.152 0 .334-.147.27-1.02-.538-1.9-.414-2.773.088-1.316.758-2.633 1.513-3.951 2.268-.943.54-1.887 1.08-2.83 1.622-.068.04-.13.092-.2.15l-.112.094.39 1.415.266-.13c.157-.075.29-.14.422-.207l2.17-1.116c1.323-.681 2.647-1.362 3.972-2.041l.049-.025c.298-.154.6-.308.914-.423 1.212-.442 2.322-.137 3.124.871.17.212.303.453.436.694.05.091.102.183.154.273.252.43.498.864.744 1.297.552.973 1.104 1.946 1.72 2.875.742 1.118 2.228 1.44 3.385.822 1.566-.837 3.114-1.709 4.662-2.58l.646-.365c.162-.09.35-.255.392-.42.111-.429.194-.865.288-1.362.038-.2.078-.41.122-.632l-.598.317-1.014.539-1.667.889c-1.051.56-2.103 1.122-3.155 1.681-.898.477-1.789.521-2.65-.084-.428-.3-.713-.784-.762-1.226-.015-.137.122-.229.256-.193 1.483.395 1.648.333 3.223-.571 1.08-.62 2.16-1.24 3.24-1.858l2.356-1.35c.16-.091.318-.187.486-.29l.252-.153-.252-1.528c-.11.058-.21.11-.305.158-.184.095-.342.177-.5.261-.666.356-1.334.71-2.003 1.064a278.18 278.18 0 0 0-4.885 2.628c-1.318.732-3.07.484-3.611-1.292-.051-.169-.096-.381.16-.269 1.026.541 1.903.394 2.773-.107 1.493-.86 2.988-1.716 4.483-2.573l2.956-1.694c.058-.033.107-.08.153-.125.02-.02.04-.039.06-.056C21.554 3.099 16.698-.07 11.863 0c-4.667.069-9.532 3.227-10.707 7l.262-.134c.174-.089.336-.172.497-.257.289-.153.578-.305.868-.456a60.344 60.344 0 0 0 2.076-1.12ZM2.324 16.869l-.135.077-.81.467-.006.004c.996 3.274 5.746 6.366 10.042 6.571 4.438.213 9.465-2.505 10.834-5.909l-.186.091c-.115.056-.217.106-.315.16l-1.085.615c-.54.307-1.081.614-1.624.917-1.773.988-3.524.593-4.62-1.11-.498-.775-.95-1.58-1.402-2.383-.205-.365-.41-.729-.618-1.09-.058-.1-.113-.201-.168-.302-.127-.233-.253-.465-.408-.677-.802-1.097-1.958-1.426-3.224-.93a5.93 5.93 0 0 0-.747.37c-1.83 1.031-3.657 2.067-5.528 3.13Z" fill="url(#logo_svg__a)"></path><defs _ngcontent-ng-c1742942910=""><linearGradient _ngcontent-ng-c1742942910="" id="logo_svg__a" x1="12" y1="0" x2="12" y2="24" gradientUnits="userSpaceOnUse"><stop _ngcontent-ng-c1742942910="" stopColor="#3974F1"></stop><stop _ngcontent-ng-c1742942910="" offset="1" stopColor="#2B4F99"></stop></linearGradient></defs></svg>

<?xml version="1.0" encoding="UTF-8" standalone="no"?>
<svg width="270.933mm" height="13.7583mm"
 xmlns="http://www.w3.org/2000/svg" xmlns:xlink="http://www.w3.org/1999/xlink"  version="1.2" baseProfile="tiny">
<desc>Created by EvoPdf</desc>
<defs>
<linearGradient gradientUnits="userSpaceOnUse" x1="12" y1="0" x2="12" y2="24" id="gradient1">
    <stop offset="1e-07" stop-color="#3974f1" stop-opacity="1" />
    <stop offset="1" stop-color="#2b4f99" stop-opacity="1" />
</linearGradient>
</defs>
<g fill="none" stroke="black" stroke-width="1" fill-rule="evenodd" stroke-linecap="square" stroke-linejoin="bevel" >

<g fill="#000000" fill-opacity="1" stroke="#000000" stroke-opacity="1" stroke-width="1" stroke-linecap="square" stroke-linejoin="miter" stroke-miterlimit="2" transform="matrix(1,0,0,1,0,0)"
>
</g>

<g fill="#000000" fill-opacity="1" stroke="#000000" stroke-opacity="1" stroke-width="1" stroke-linecap="square" stroke-linejoin="miter" stroke-miterlimit="2" transform="matrix(1,0,0,1,0,0)"
>
</g>

<g fill="#000000" fill-opacity="1" stroke="#000000" stroke-opacity="1" stroke-width="1" stroke-linecap="square" stroke-linejoin="miter" stroke-miterlimit="2" transform="matrix(1,0,0,1,0,0)"
>
</g>

<g fill="#000000" fill-opacity="1" stroke="#000000" stroke-opacity="1" stroke-width="1" stroke-linecap="square" stroke-linejoin="miter" stroke-miterlimit="2" transform="matrix(1,0,0,1,0,0)"
>
</g>

<g fill="#000000" fill-opacity="1" stroke="#000000" stroke-opacity="1" stroke-width="1" stroke-linecap="square" stroke-linejoin="miter" stroke-miterlimit="2" transform="matrix(1.5,0,0,1.5,8,8)"
>
</g>

<g fill="url(#gradient1)" stroke="none" transform="matrix(1.5,0,0,1.5,8,8)"
>
<path vector-effect="none" fill-rule="evenodd" d="M4.86,5.035 C6.036,4.36 7.856,4.65 8.307,6.397 C8.339,6.571 8.287,6.666 7.996,6.583 C7.069,6.153 6.272,6.27 5.502,6.71 C3.854,7.65 2.207,8.595 0.564,9.546 C0.418,9.631 0.218,9.75 0.188,9.886 C0.048,10.513 -0.088,11.15 0.073,11.832 L0.289,11.725 C0.424,11.658 0.544,11.599 0.662,11.536 C2.672,10.466 4.682,9.394 6.692,8.321 C7.455,7.914 8.23,7.841 9.02,8.235 C9.629,8.537 9.941,9.075 10.157,9.685 C10.224,9.837 10.157,10.019 10.01,9.955 C8.99,9.417 8.11,9.541 7.237,10.043 C5.921,10.801 4.604,11.556 3.286,12.311 C2.343,12.851 1.399,13.391 0.456001,13.933 C0.388001,13.973 0.326001,14.025 0.256001,14.083 L0.144001,14.177 L0.534001,15.592 L0.800001,15.462 C0.957001,15.387 1.09,15.322 1.222,15.255 L3.392,14.139 C4.715,13.458 6.039,12.777 7.364,12.098 L7.413,12.073 C7.711,11.919 8.013,11.765 8.327,11.65 C9.539,11.208 10.649,11.513 11.451,12.521 C11.621,12.733 11.754,12.974 11.887,13.215 C11.937,13.306 11.989,13.398 12.041,13.488 C12.293,13.918 12.539,14.352 12.785,14.785 C13.337,15.758 13.889,16.731 14.505,17.66 C15.247,18.778 16.733,19.1 17.89,18.482 C19.456,17.645 21.004,16.773 22.552,15.902 L23.198,15.537 C23.36,15.447 23.548,15.282 23.59,15.117 C23.701,14.688 23.784,14.252 23.878,13.755 C23.916,13.555 23.956,13.345 24,13.123 L23.402,13.44 L22.388,13.979 L20.721,14.868 C19.67,15.428 18.618,15.99 17.566,16.549 C16.668,17.026 15.777,17.07 14.916,16.465 C14.488,16.165 14.203,15.681 14.154,15.239 C14.139,15.102 14.276,15.01 14.41,15.046 C15.893,15.441 16.058,15.379 17.633,14.475 C18.713,13.855 19.793,13.235 20.873,12.617 L23.229,11.267 C23.389,11.176 23.547,11.08 23.715,10.977 L23.967,10.824 L23.715,9.296 C23.605,9.354 23.505,9.406 23.41,9.454 C23.226,9.549 23.068,9.631 22.91,9.715 C22.244,10.071 21.576,10.425 20.907,10.779 C19.27,11.6387 17.6415,12.5148 16.022,13.407 C14.704,14.139 12.952,13.891 12.411,12.115 C12.36,11.946 12.315,11.734 12.571,11.846 C13.597,12.387 14.474,12.24 15.344,11.739 C16.837,10.879 18.332,10.023 19.827,9.166 L22.783,7.472 C22.841,7.439 22.89,7.392 22.936,7.347 C22.956,7.327 22.976,7.308 22.996,7.291 C21.554,3.099 16.698,-0.07 11.863,0 C7.196,0.069 2.331,3.227 1.156,7 L1.418,6.866 C1.592,6.777 1.754,6.694 1.915,6.609 C2.204,6.456 2.493,6.304 2.783,6.153 C3.48223,5.79323 4.17436,5.41982 4.859,5.033 L4.86,5.035 M2.324,16.869 L2.189,16.946 L1.379,17.413 L1.373,17.417 C2.369,20.691 7.119,23.783 11.415,23.988 C15.853,24.201 20.88,21.483 22.249,18.079 L22.063,18.17 C21.948,18.226 21.846,18.276 21.748,18.33 L20.663,18.945 C20.123,19.252 19.582,19.559 19.039,19.862 C17.266,20.85 15.515,20.455 14.419,18.752 C13.921,17.977 13.469,17.172 13.017,16.369 C12.812,16.004 12.607,15.64 12.399,15.279 C12.341,15.179 12.286,15.078 12.231,14.977 C12.104,14.744 11.978,14.512 11.823,14.3 C11.021,13.203 9.865,12.874 8.599,13.37 C8.34163,13.4757 8.09201,13.5993 7.852,13.74 C6.022,14.771 4.195,15.807 2.324,16.87 L2.324,16.869"/>
</g>

<g fill="#000000" fill-opacity="1" stroke="#000000" stroke-opacity="1" stroke-width="1" stroke-linecap="square" stroke-linejoin="miter" stroke-miterlimit="2" transform="matrix(1.5,0,0,1.5,8,8)"
>
</g>

<g fill="#000000" fill-opacity="1" stroke="#000000" stroke-opacity="1" stroke-width="1" stroke-linecap="square" stroke-linejoin="miter" stroke-miterlimit="2" transform="matrix(1.5,0,0,1.5,8,8)"
>
</g>

<g fill="#000000" fill-opacity="1" stroke="#000000" stroke-opacity="1" stroke-width="1" stroke-linecap="square" stroke-linejoin="miter" stroke-miterlimit="2" transform="matrix(1.5,0,0,1.5,8,8)"
>
</g>

<g fill="#000000" fill-opacity="1" stroke="#000000" stroke-opacity="1" stroke-width="1" stroke-linecap="square" stroke-linejoin="miter" stroke-miterlimit="2" transform="matrix(1,0,0,1,0,0)"
>
</g>

<g fill="#000000" fill-opacity="1" stroke="#000000" stroke-opacity="1" stroke-width="1" stroke-linecap="square" stroke-linejoin="miter" stroke-miterlimit="2" transform="matrix(1,0,0,1,0,0)"
>
</g>

<g fill="#000000" fill-opacity="1" stroke="#000000" stroke-opacity="1" stroke-width="1" stroke-linecap="square" stroke-linejoin="miter" stroke-miterlimit="2" transform="matrix(1,0,0,1,0,0)"
>
</g>

<g fill="#000000" fill-opacity="1" stroke="#000000" stroke-opacity="1" stroke-width="1" stroke-linecap="square" stroke-linejoin="miter" stroke-miterlimit="2" transform="matrix(1,0,0,1,0,0)"
>
</g>

<g fill="#000000" fill-opacity="1" stroke="#000000" stroke-opacity="1" stroke-width="1" stroke-linecap="square" stroke-linejoin="miter" stroke-miterlimit="2" transform="matrix(1.5,0,0,1.5,8,8)"
>
</g>

<g fill="#000000" fill-opacity="1" stroke="#000000" stroke-opacity="1" stroke-width="1" stroke-linecap="square" stroke-linejoin="miter" stroke-miterlimit="2" transform="matrix(1,0,0,1,0,0)"
>
</g>

<g fill="#000000" fill-opacity="1" stroke="#000000" stroke-opacity="1" stroke-width="1" stroke-linecap="square" stroke-linejoin="miter" stroke-miterlimit="2" transform="matrix(1,0,0,1,0,0)"
>
</g>

<g fill="#000000" fill-opacity="1" stroke="#000000" stroke-opacity="1" stroke-width="1" stroke-linecap="square" stroke-linejoin="miter" stroke-miterlimit="2" transform="matrix(1,0,0,1,0,0)"
>
</g>

<g fill="#000000" fill-opacity="1" stroke="#000000" stroke-opacity="1" stroke-width="1" stroke-linecap="square" stroke-linejoin="miter" stroke-miterlimit="2" transform="matrix(1,0,0,1,0,0)"
>
</g>

<g fill="#000000" fill-opacity="1" stroke="#000000" stroke-opacity="1" stroke-width="1" stroke-linecap="square" stroke-linejoin="miter" stroke-miterlimit="2" transform="matrix(1,0,0,1,0,0)"
>
</g>

<g fill="#000000" fill-opacity="1" stroke="#000000" stroke-opacity="1" stroke-width="1" stroke-linecap="square" stroke-linejoin="miter" stroke-miterlimit="2" transform="matrix(1,0,0,1,0,0)"
>
</g>
</g>
</svg>
